!!!!SEGMENT: pl-kk--kk-i-2--041_terzago-bernardino--patrem-na-augment-bernardynskie.krn
!!!cenid: 16xx:1661
!!!COM: Anonim
!!!COM-rismid: pe30004985
!!!CDT:
!!!CNT:
!!!OTL: Patrem na augment Bernardyńskie
!!!PDT:
!!!AGN: Sacred
!!!SMS-siglum: PL-Kk
!!!SMS-shelfmark: Kk.I.2
!!!SMS-shelfwork: 041 W
!!!NIFC-rismid: 300258059
!!!URL-scan: http://repozytorium.nifc.pl/skany/pl-kk-nut--i-2
!!!ONB-nifc: skany: skany: C: 0062-0064; A: 0166-0167; T: 0267-0268; B: 0365-0367;
!!!AIN: 1 alto 1 bass 1 soprn 1 tenor
!!!key:
**kern	**text	**kern	**text	**kern	**text	**kern	**text
*part4	*part4	*part3	*part3	*part2	*part2	*part1	*part1
*staff4	*staff4	*staff3	*staff3	*staff2	*staff2	*staff1	*staff1
*I"BASVS	*	*I"TENOR	*	*I"ALTVS	*	*I"DISCANTVS	*
*IB	*	*IT	*	*IA	*	*IS	*
*Ibass	*	*Itenor	*	*Ialto	*	*Isoprn	*
*ICvox	*	*ICvox	*	*ICvox	*	*ICvox	*
*clefF3	*	*clefC3	*	*clefC3	*	*clefC2	*
*k[]	*	*k[]	*	*k[]	*	*k[]	*
*C:	*	*C:	*	*C:	*	*C:	*
*M2/1	*	*M2/1	*	*M2/1	*	*M2/1	*
*met(C|)	*	*met(C|)	*	*met(C|)	*	*met(C|)	*
=1--	=1--	=1--	=1--	=1--	=1--	=1--	=1--
*all\right	*	*all\right	*	*all\right	*	*all\right	*
!LO:TX:t=Bernardinus Terzagus Romanus Praebend<.>rius Capella S.K.M. in Arce Crac. fecit A.D. 1623 25 Decembris	!	!LO:TX:i:t=Na augment Bernardynskie.	!	!LO:TX:i:t=Na augment Piekne. Bernardynskie.	!	!LO:TX:i:t=Na Augment Bernardynskie .	!
!LO:TX:i:t=Na augment Bernardynskie	!	!	!	!	!	!	!
1c\	PA-	1c\	PA-	2r	.	1g\	Pa-
.	.	.	.	1c\	PA-	.	.
1G\	-trem	1d\	-trem	.	.	1g\	-trem
.	.	.	.	2B/	.	.	.
=2-	=2-	=2-	=2-	=2-	=2-	=2-	=2-
1c\	om-	1e\	om-	2c/	-trem	1g\	om-
.	.	.	.	1c\	om-	.	.
*	*	*	*	*	*	*2\right	*
2F/	-ni-	1f\	-ni-	.	.	2a\	-ni-
2D/	-po-	.	.	1d\	-ni-	2a\	-po-
=3-	=3-	=3-	=3-	=3-	=3-	=3-	=3-
2.E/	-ten-	1e\	-po-	.	.	0g\	-ten-
.	.	.	.	1c\	-po-	.	.
4F/	.	.	.	.	.	.	.
1G\	.	1d\	-ten-	.	.	.	.
.	.	.	.	2B/	-ten-	.	.
=4-	=4-	=4-	=4-	=4-	=4-	=4-	=4-
*	*	*	*	*	*	*lig	*
!	!	!	!	!	!	!LO:SIC:v:l:s==tem	!
1C/	-tem	0c\	-tem	1c\	-tem	1e\	-tvm
1F\	fac-	.	.	1A/	fac-	1f\	.
*	*	*	*	*	*	*Xlig	*
=5-	=5-	=5-	=5-	=5-	=5-	=5-	=5-
1A\	-to-	1c\	fac-	1c\	-to-	1r	.
1G\	-rem	1e\	-to-	1B/	-rem	1g\	fac-
=6-	=6-	=6-	=6-	=6-	=6-	=6-	=6-
1G\	cae-	1d\	-rem	4B/	cae-	1b\	-to-
.	.	.	.	4c/	.	.	.
.	.	.	.	4d\	.	.	.
.	.	.	.	4e\	.	.	.
1D/	-li	1d\	cae-	1f\	.	1.a\	-rem
=7-	=7-	=7-	=7-	=7-	=7-	=7-	=7-
*	*	*2\right	*	*2\right	*	*	*
2F/	et	2c/	-li	2f\	-li	.	.
*2\right	*	*	*	*	*	*	*
2G\	.	2B/	et	2d\	et	1g\	cae-
1D/	ter-	1A/	ter-	1d\	ter-	.	.
!	!	!	!	!	!	!LO:TX:t=P:♯below:problem	!
.	.	.	.	.	.	2f#X\	.
=8-	=8-	=8-	=8-	=8-	=8-	=8-	=8-
1G\	-rae	0G/	-rae	0B/	-rae	1.g\	-li
2G\	Vi-	.	.	.	.	.	.
*custos:A	*	*	*	*	*	*	*
2G\	-ſi-	.	.	.	.	2d/	et
!LO:LB:g=original	!	!	!	!	!	!	!
=9-	=9-	=9-	=9-	=9-	=9-	=9-	=9-
2A\	-bi-	2c/	Vi-	2e\	Vi-	1a\	ter-
2A\	-li-	2c/	-ſi-	2e\	-ſi-	.	.
1B\	-um	2d\	-bi-	2g\	-bi-	1g\	-rae
.	.	2d\	-li-	2g\	-li-	.	.
=10-	=10-	=10-	=10-	=10-	=10-	=10-	=10-
*	*	*custos:c	*	*	*	*	*
2.c\	om-	1e\	-um	2.c/	-um	2g\	Vi-
.	.	.	.	.	.	2g\	-ſi-
*	*	*	*	*custos:e	*	*	*
4B\	.	.	.	4d\	.	.	.
!	!	!LO:LB:g=original	!	!LO:LB:g=original	!	!	!
1A\	.	1c\	.	1e\	.	2a\	-bi-
.	.	.	.	.	.	2a\	-li-
=11-	=11-	=11-	=11-	=11-	=11-	=11-	=11-
*	*	*	*	*	*	*custos:cc	*
1D/	-ni-	1f\	o-	1d\	o(m)-	1b\	-um
!	!	!	!	!	!	!LO:LB:g=original	!
1C/	-um	1e\	.	1G/	-ni-	2.cc\	o[m]-
.	.	.	.	.	.	8b\L	.
.	.	.	.	.	.	8a\J	.
=12-	=12-	=12-	=12-	=12-	=12-	=12-	=12-
2.G\	o-	1d\	.	1B/	-um	2.g\	.
4F/	.	.	.	.	.	4g\	-ni-
4E/	.	1e\	-mni-	2B/	o-	2g\	-um
4D/	.	.	.	.	.	.	.
2C/	.	.	.	2c/	.	1g\	o-
=13-	=13-	=13-	=13-	=13-	=13-	=13-	=13-
2D/	.	0d\	-um.	2.A/	.	.	.
!	!	!	!	!	!	!LO:TX:t=P:♯below:problem	!
2D/	-mni-	.	.	.	.	2f#X\	.
.	.	.	.	4A/	-mni-	.	.
1G\	-um	.	.	1B/	-um.	1.g\	.
=14-	=14-	=14-	=14-	=14-	=14-	=14-	=14-
1r	.	1e\	Et	2r	.	.	.
.	.	.	.	1A/	et	2c/	-mni-
1D/	et	1f\	in	.	.	1d/	-um.
.	.	.	.	1B/	in	.	.
=15-	=15-	=15-	=15-	=15-	=15-	=15-	=15-
1E/	in	1g\	ui-	.	.	1g\	et
.	.	.	.	1c\	vi-	.	.
1F\	ui-	1c\	-ſi-	.	.	1a\	in
.	.	.	.	2A/	-ſi-	.	.
=16-	=16-	=16-	=16-	=16-	=16-	=16-	=16-
2G\	-ſi-	1e\	-bi-	2G/	-bi-	2b\	vi-
2A\	-bi-	.	.	1c\	.	1a\	.
2F/	.	1d\	-li-	.	.	.	.
2G\	-li-	.	.	2B/	.	2g\	-ſi-
=17-	=17-	=17-	=17-	=17-	=17-	=17-	=17-
1C/	-um	0c\	-um.	2.c/	.	1g\	-bi-
.	.	.	.	4B/	.	.	.
1F\	et	.	.	1A/	.	1fny\	-li-
=18-	=18-	=18-	=18-	=18-	=18-	=18-	=18-
1A\	in	1c\	Et	1A/	-li-	1e\	-um
1.G\	U-	1e\	in	1B/	-um	1g\	et
=19-	=19-	=19-	=19-	=19-	=19-	=19-	=19-
.	.	1d\	U-	1d\	Et	1b\	in
*custos:D	*	*	*	*	*	*	*
2G\	-num	.	.	.	.	.	.
!LO:LB:g=original	!	!	!	!	!	!	!
1D/	Do-	1d\	-num.	1f\	in	1a\	V-
=20-	=20-	=20-	=20-	=20-	=20-	=20-	=20-
2E/	.	1B/	Do-	2e\	U-	2g\	-num
2G\	.	.	.	2d\	-num	1g\	Do-
2.D/	.	1A/	-mi-	1.d\	Do-	.	.
!	!	!	!	!	!	!LO:TX:t=P:♯below:problem	!
.	.	.	.	.	.	2f#X\	-mi-
4D/	-mi-	.	.	.	.	.	.
=21-	=21-	=21-	=21-	=21-	=21-	=21-	=21-
0G\	-num	0G/	-num.	.	.	2g\	-num
.	.	.	.	2d\	-mi-	2.b\	Ie-
.	.	.	.	1d\	-num	.	.
.	.	.	.	.	.	4a\	.
.	.	.	.	.	.	4g\	.
.	.	.	.	.	.	4fny\	.
=22-	=22-	=22-	=22-	=22-	=22-	=22-	=22-
4A\	do-	1c\	Je-	1r	.	1e\	.
4B\	.	.	.	.	.	.	.
1c\	.	.	.	.	.	.	.
*	*	*	*	*	*	*custos:c	*
.	.	1d\	.	2.g\	Ie-	1d/	.
2B\	-mi-	.	.	.	.	.	.
*	*	*	*	*custos:e	*	*	*
.	.	.	.	4f\	.	.	.
!	!	!	!	!LO:LB:g=original	!	!LO:LB:g=original	!
=23-	=23-	=23-	=23-	=23-	=23-	=23-	=23-
4c\	-num	1e\	.	4e\	.	2c/	-ſum
2c\	Je-	.	.	4d\	.	.	.
.	.	.	.	1c\	.	2.cc\	Ie-
4B\	.	.	.	.	.	.	.
4A\	.	1c\	.	.	.	.	.
4G\	.	.	.	.	.	4b\	.
4F/	.	.	.	2.f\	-ſum	4a\	.
4E/	.	.	.	.	.	4g\	.
=24-	=24-	=24-	=24-	=24-	=24-	=24-	=24-
*lig	*	*	*	*	*	*	*
1D/	.	1f\	.	.	.	1a\	.
.	.	.	.	4e\	.	.	.
.	.	.	.	1d\	.	.	.
2.E/	.	1e\	.	.	.	1g\	-ſum
.	.	.	.	1c\	.	.	.
*Xlig	*	*	*	*	*	*	*
4F/	.	.	.	.	.	.	.
=25-	=25-	=25-	=25-	=25-	=25-	=25-	=25-
*	*	*custos:e	*	*	*	*	*
1G\	.	1d\	.	.	.	1g\	Ie-
.	.	.	.	2B/	Chri-	.	.
!	!	!LO:LB:g=original	!	!	!	!	!
1C/	-ſum	1e\	.	2.c/	.	2g\	-ſum
.	.	.	.	.	.	1g\	Chriſ-
.	.	.	.	4B/	.	.	.
=26-	=26-	=26-	=26-	=26-	=26-	=26-	=26-
1D/	Chri-	0d\	-ſum	1A/	.	.	.
!	!	!	!	!	!	!LO:TX:t=P:♯below:problem	!
.	.	.	.	.	.	2f#X\	.
1G\	-ſtum	.	.	1B/	-ſtum	1.g\	.
=27-	=27-	=27-	=27-	=27-	=27-	=27-	=27-
1r	.	1e\	Chri-	2r	.	.	.
.	.	.	.	1A/	Ie-	2c/	.
1D/	Je-	1f\	.	.	.	1d/	-tum
.	.	.	.	1B/	-ſum	.	.
=28-	=28-	=28-	=28-	=28-	=28-	=28-	=28-
1E/	-ſum	1g\	.	.	.	1g\	Je-
.	.	.	.	1c\	Chri-	.	.
1F\	Chri-	1c\	.	.	.	1a\	-ſum
.	.	.	.	2A/	.	.	.
=29-	=29-	=29-	=29-	=29-	=29-	=29-	=29-
2G\	.	1e\	.	2G/	.	2b\	.
2A\	.	.	.	1c\	.	1a\	Chriſ-
2F/	.	1d\	.	.	.	.	.
*custos:C	*	*	*	*	*	*	*
2G\	.	.	.	2B/	.	2g\	.
!LO:LB:g=original	!	!	!	!	!	!	!
=30-	=30-	=30-	=30-	=30-	=30-	=30-	=30-
1C/	-ſtum	0c\	-ſtum	1c\	-ſtum	1e\	-tum
1F\	fi-	.	.	1A/	fi-	1r	.
=31-	=31-	=31-	=31-	=31-	=31-	=31-	=31-
2A\	-li-	1c\	Fi-	2e\	-li-	1r	.
2A\	-um	.	.	2e\	-um	.	.
1G\	De-	2e\	-li-	2B/	De-	1g\	fi-
.	.	2e\	-um	2B/	-i	.	.
=32-	=32-	=32-	=32-	=32-	=32-	=32-	=32-
1G\	-i	1d\	De-	4B/	u-	2b\	-li-
.	.	.	.	4c/	.	.	.
.	.	.	.	4d\	.	2b\	-um
.	.	.	.	4e\	.	.	.
2.D/	U-	1d\	-i	1.f\	.	2a\	De-
.	.	.	.	.	.	2a\	-i
4E/	.	.	.	.	.	.	.
=33-	=33-	=33-	=33-	=33-	=33-	=33-	=33-
2F/	.	2c/	U-	.	.	2a\	u-
*	*	*	*	*custos:d	*	*	*
2G\	-ni-	2B/	-ni-	2d\	-ni-	2g\	-ni-
!	!	!	!	!LO:LB:g=original	!	!	!
2D/	-ge-	2A/	-ge-	2.d\	-ge-	2g\	-ge-
*	*	*	*	*	*	*custos:g	*
!	!	!	!	!	!	!LO:TX:t=P:♯below:problem	!
2D/	-ni-	2A/	-ni-	.	.	2f#X\	-ni-
.	.	.	.	4d\	-ni-	.	.
!	!	!	!	!	!	!LO:LB:g=original	!
=34-	=34-	=34-	=34-	=34-	=34-	=34-	=34-
1G\	-tum..	0G/	-tum	0B/	-tum	1g\	-tum
2G\	Et	.	.	.	.	2g\	u-
2G\	ex	.	.	.	.	2d/	-ni-
=35-	=35-	=35-	=35-	=35-	=35-	=35-	=35-
2A\	Pat-	2c/	et	2e\	Et	2a\	-ge-
2A\	-re	2c/	ex	2e\	ex	2a\	-ni-
2B\	na-	2d\	P(at)-	2g\	P(at)-	1g\	-tum.
2B\	-tu(m)	2d\	-re	2g\	-re	.	.
=36-	=36-	=36-	=36-	=36-	=36-	=36-	=36-
2c\	an-	2e\	na-	2.c/	na-	2g\	Et
2c\	-te	2e\	-tum	.	.	2g\	ex
.	.	.	.	4d\	.	.	.
2A\	om-	2c/	an-	1e\	.	2a\	P(at)-
*	*	*custos:f	*	*	*	*	*
2A\	-ni-	2c/	-te	.	.	2a\	-re
!	!	!LO:LB:g=original	!	!	!	!	!
=37-	=37-	=37-	=37-	=37-	=37-	=37-	=37-
1D/	-a	1f\	om-	1d\	-tum	2b\	na-
.	.	.	.	.	.	2b\	-tum
1C/	ſae-	2e\	-ni-	2G/	an-	2cc\	an-
.	.	2e\	-a	2G/	-te	2cc\	-te
=38-	=38-	=38-	=38-	=38-	=38-	=38-	=38-
2.G\	.	1d\	ſae-	1B/	om-	2.g\	om-
4F/	.	.	.	.	.	4g\	-ni-
4E/	.	1e\	-cu-	2B/	-ni-	1.g\	-a
*custos:C	*	*	*	*	*	*	*
4D/	.	.	.	.	.	.	.
!LO:LB:g=original	!	!	!	!	!	!	!
2C/	.	.	.	2c/	-a	.	.
=39-	=39-	=39-	=39-	=39-	=39-	=39-	=39-
2.D/	.	0d\	-la.	2.A/	ſae-	.	.
!	!	!	!	!	!	!LO:TX:t=P:♯below:problem	!
.	.	.	.	.	.	2f#X\	.
4D/	-cu-	.	.	4A/	-cu-	.	.
1G\	-la.	.	.	1B/	-la.	1g\	ſae-
=40-	=40-	=40-	=40-	=40-	=40-	=40-	=40-
1r	.	1e\	De-	2r	.	1a\	-cu-
.	.	.	.	1A/	De-	.	.
1D/	De-	2f\	-um	.	.	1d/	-la.
.	.	2f\	de	2B/	-um	.	.
=41-	=41-	=41-	=41-	=41-	=41-	=41-	=41-
2E/	-um	1g\	De-	2B/	de	1g\	De-
2E/	de	.	.	1c\	De-	.	.
1F\	De-	2c/	-o	.	.	2a\	-um
.	.	2c/	lu-	2A/	-o	2a\	de
=42-	=42-	=42-	=42-	=42-	=42-	=42-	=42-
2G\	-o	2e\	-men	2G/	lu-	2b\	De-
2A\	lu-	2e\	de	4c/	-men	2a\	-o
.	.	.	.	4c/	de	.	.
2F/	-men	2d\	lu-	2c/	lu-	2a\	lu-
*	*	*	*	*custos:c	*	*	*
2G\	de	2d\	-mi-	2B/	-mi-	4g\	-men
*	*	*	*	*	*	*custos:g	*
.	.	.	.	.	.	4g\	de
!	!	!	!	!LO:LB:g=original	!	!LO:LB:g=original	!
=43-	=43-	=43-	=43-	=43-	=43-	=43-	=43-
2.C/	lu-	0c\	-ne	1c\	-ne	2.g\	lu-
4C/	-mi-	.	.	.	.	4g\	-mi-
1C/	-ne	.	.	1c\	De-	1e\	-ne
=44-	=44-	=44-	=44-	=44-	=44-	=44-	=44-
1r	.	1c\	De-	1e\	-um	1e\	De-
1E/	De-	1e\	-um	2B/	ve-	1g\	-um
.	.	.	.	1c\	-rum	.	.
=45-	=45-	=45-	=45-	=45-	=45-	=45-	=45-
1G\	-um	1d\	Ve-	.	.	1g\	ve-
.	.	.	.	2B/	de	.	.
1F\	Ve-	1d\	-rum	1.A/	De-	2a\	-rum
.	.	.	.	.	.	2a\	de
=46-	=46-	=46-	=46-	=46-	=46-	=46-	=46-
2F\	-rum	2c/	de	.	.	2a\	De-
2G\	de	2B/	De-	1d\	-o	1g\	-o
2D/	De-	2A/	-o	.	.	.	.
!	!	!	!	!	!	!LO:TX:t=P:♯below:problem	!
2A\	-o	2A/	ve-	2c/	ve-	2f#X\	ve-
=47-	=47-	=47-	=47-	=47-	=47-	=47-	=47-
*	*	*custos:c	*	*	*	*	*
2B\	Ve-	0G/	-ro	2d\	.	1g\	-ro
1c\	.	.	.	2e\	.	.	.
.	.	.	.	1d\	-ro	2r	.
2B\	.	.	.	.	.	2.g\	ge-
!	!	!LO:LB:g=original	!	!	!	!	!
=48-	=48-	=48-	=48-	=48-	=48-	=48-	=48-
2c\	-ro	1c\	ge-	1r	.	.	.
.	.	.	.	.	.	4g\	-ni-
1F\	ge-	.	.	.	.	1a\	-tum
.	.	1d\	-ni-	2r	.	.	.
*custos:A	*	*	*	*	*	*	*
!LO:SIC:v:l:t=custos tum	!	!	!	!	!	!	!
1G\	-ni-	.	.	2.B/	ge-	2.g\	non
=49-	=49-	=49-	=49-	=49-	=49-	=49-	=49-
.	.	1e\	-tum	.	.	.	.
.	.	.	.	4B/	-ni-	4fny\	.
!LO:PB:g=original	!	!	!	!	!	!	!
2.A\	-tum	.	.	2.c/	-tum	1e\	.
.	.	1c\	.	.	.	.	.
4G\	.	.	.	4B/	.	.	.
4F/	.	.	.	1A/	.	2.f\	fac-
4E/	.	.	.	.	.	.	.
=50-	=50-	=50-	=50-	=50-	=50-	=50-	=50-
1D/	.	1f\	non	.	.	.	.
.	.	.	.	.	.	4g\	.
.	.	.	.	1d\	non	2a\	.
2.E/	non	1e\	.	.	.	1g\	.
.	.	.	.	1c\	.	.	.
4F/	.	.	.	.	.	.	.
=51-	=51-	=51-	=51-	=51-	=51-	=51-	=51-
1G\	.	1d\	.	.	.	1.g\	-tum
.	.	.	.	2B/	fa-	.	.
*lig	*	*	*	*	*	*	*
1C/	fac-	1e\	fac-	2.c/	.	.	.
.	.	.	.	.	.	1g\	non
.	.	.	.	4B/	.	.	.
=52-	=52-	=52-	=52-	=52-	=52-	=52-	=52-
1D/	.	0d\	-tum	1A/	.	.	.
!	!	!	!	!	!	!LO:TX:t=P:♯below:problem	!
.	.	.	.	.	.	2f#X\	.
*Xlig	*	*	*	*	*	*	*
1G\	-tum	.	.	1B/	-ctum	1g\	fac-
=53-	=53-	=53-	=53-	=53-	=53-	=53-	=53-
1r	.	2e\	con-	2c/	con-	1g\	-tum
.	.	2e\	-ſub-	2c/	-ſub-	.	.
*	*	*	*	*	*	*custos:g	*
!	!	!	!	!	!	!LO:SIC:v:l:t=custos conſub	!
2D/	con-	2f\	-ſtan-	2d\	-ſtan-	1r	.
*	*	*	*	*custos:B	*	*	*
!	!	!	!	!LO:SIC:v:l:t=custos alem	!	!	!
2D/	-ſub-	2f\	-ti-	2d\	-ti-	.	.
!	!	!	!	!LO:PB:g=original	!	!LO:PB:g=original	!
=54-	=54-	=54-	=54-	=54-	=54-	=54-	=54-
2E/	-ſtan-	1g\	-a-	1B/	-a-	2g\	con-
2E/	-ti-	.	.	.	.	2g\	-ſub-
1F\	-a-	1c\	-lem	2.A/	-lem	2a\	-ſtan-
.	.	.	.	.	.	2a\	-ti-
.	.	.	.	4B/	.	.	.
=55-	=55-	=55-	=55-	=55-	=55-	=55-	=55-
1C/	-lem	1e\	Pa-	1.c\	.	2g\	-a-
.	.	.	.	.	.	2g\	-lem
1G\	P(at)-	1d\	.	.	.	2.g\	Pa-
.	.	.	.	2B/	Pa-	.	.
.	.	.	.	.	.	4fny\	.
=56-	=56-	=56-	=56-	=56-	=56-	=56-	=56-
1C/	-ri	0c\	-tri	1c\	-tri	1e\	.
1F\	p(er)	.	.	1A/	p(er)	1f\	.
=57-	=57-	=57-	=57-	=57-	=57-	=57-	=57-
1A\	quem	1c\	p(er)	1c\	quem	1e\	-tri
1.G\	o-	1e\	quem	2.B/	o-	1g\	p(er)
.	.	.	.	4B/	-mni-	.	.
=58-	=58-	=58-	=58-	=58-	=58-	=58-	=58-
.	.	1d\	o-	4B/	-a	1b\	quem
.	.	.	.	4c/	.	.	.
2G\	-mni-	.	.	4d\	.	.	.
.	.	.	.	4e\	.	.	.
2D/	-a	2d\	-mni-	2f\	.	1a\	o-
1F\	fa-	2c/	-a	1f\	.	.	.
=59-	=59-	=59-	=59-	=59-	=59-	=59-	=59-
.	.	1B/	fa-	.	.	2a\	-mni-
2G\	.	.	.	2d\	fa-	2g\	-a
2D/	.	1A/	-cta	1d\	-cta	2g\	fa-
!	!	!	!	!	!	!LO:TX:t=P:♯below:problem	!
2D/	-cta	.	.	.	.	2f#X\	-cta
=60-	=60-	=60-	=60-	=60-	=60-	=60-	=60-
*	*	*custos:c	*	*	*	*	*
0G\	ſunt	0G/	ſunt	0d\	ſunt	0g\	ſunt
!	!	!LO:PB:g=original	!	!	!	!	!
=61-	=61-	=61-	=61-	=61-	=61-	=61-	=61-
1.F\	Q(ui)	1c\	Qui	2r	.	2a\	q(ui)
.	.	.	.	1A/	Q(ui)	1fny\	pro-
.	.	1d\	pro-	.	.	.	.
1G\	p(ro)-	.	.	1B/	p(ro)-	2d/	.
=62-	=62-	=62-	=62-	=62-	=62-	=62-	=62-
.	.	1e\	-pter	.	.	2g\	-pter
*custos:d	*	*	*	*	*	*	*
1A\	-pter	.	.	1c\	-pter	2e\	.
.	.	1f\	nos	.	.	1.a\	nos
!LO:LB:g=original	!	!	!	!	!	!	!
2.d\	nos	.	.	2d\	nos	.	.
=63-	=63-	=63-	=63-	=63-	=63-	=63-	=63-
.	.	1e\	ho-	1A/	.	.	.
4c\	.	.	.	.	.	.	.
1c\	ho-	.	.	.	.	2e/	ho-
.	.	1d\	-mi-	2F/	ho-	2f\	.
2B\	-mi-	.	.	2G/	-mi-	2d/	-mi-
=64-	=64-	=64-	=64-	=64-	=64-	=64-	=64-
1c\	-nes	0c\	-nes	1c\	-nes	2.e/	-nes
.	.	.	.	.	.	4f\	.
1r	.	.	.	2.c/	et	1g\	.
.	.	.	.	4d\	.	.	.
=65-	=65-	=65-	=65-	=65-	=65-	=65-	=65-
*	*	*	*	*	*	*custos:e	*
2r	.	1c\	et	4e\	.	2r	.
*	*	*	*	*custos:g	*	*	*
.	.	.	.	4f\	.	.	.
!	!	!	!	!LO:LB:g=original	!	!LO:LB:g=original	!
2.C/	et	.	.	2g\	.	2.e/	et
.	.	2e\	p(ro)-	0g\	p(ro)-	.	.
4D/	.	.	.	.	.	4f\	.
4E/	.	2e\	-pter	.	.	4g\	.
4F/	.	.	.	.	.	4a\	.
=66-	=66-	=66-	=66-	=66-	=66-	=66-	=66-
2G\	.	1d\	no-	.	.	2b\	.
4F/	.	.	.	.	.	4a\	.
4E/	.	.	.	.	.	4g\	.
2F/	.	1d\	-ſtram	1d\	-pter	2a\	p(ro)-
2G\	p(ro)-	.	.	.	.	2g\	-pter
=67-	=67-	=67-	=67-	=67-	=67-	=67-	=67-
!	!	!	!	!	!	!LO:TX:t=P:♯below:problem	!
2D/	-pter	1B/	ſa-	1.d\	no-	2f#X\	.
1G\	no-	.	.	.	.	2g\	no-
.	.	1A/	-lu-	.	.	2a\	-ſtram
1F\	-ſtram	.	.	2A/	-ſtram	2d/	ſa-
=68-	=68-	=68-	=68-	=68-	=68-	=68-	=68-
.	.	0G/	-tem.	4c/	.	1g\	-lu-
.	.	.	.	4d\	.	.	.
2E/	ſa-	.	.	2e\	.	.	.
2.G\	-lu-	.	.	2.B/	ſa-	1g\	-tem
4F/	.	.	.	4A/	.	.	.
=69-	=69-	=69-	=69-	=69-	=69-	=69-	=69-
2E/	.	1c\	de-	2G/	.	1r	.
2F/	.	.	.	1c\	-lu-	.	.
1D/	.	1d\	-ſcen-	.	.	1fny\	de-
.	.	.	.	2B/	.	.	.
=70-	=70-	=70-	=70-	=70-	=70-	=70-	=70-
2C/	-tem	1e\	-dit	1c\	-tem	1g\	-ſcen-
4c\	de-	.	.	.	.	.	.
4B\	.	.	.	.	.	.	.
4A\	.	1c\	.	1c\	de-	1a\	-dit
4G\	.	.	.	.	.	.	.
2A\	.	.	.	.	.	.	.
=71-	=71-	=71-	=71-	=71-	=71-	=71-	=71-
2B-X\	-ſcen-	1f\	de	1d\	-ſcen-	1f\	de
1d\	-dit	.	.	.	.	.	.
.	.	1e\	.	2e\	-dit	2a\	cae-
1c\	.	.	.	2c/	de	4e/	.
.	.	.	.	.	.	4f\	.
=72-	=72-	=72-	=72-	=72-	=72-	=72-	=72-
.	.	1d\	cae-	1G/	cae-	0g\	.
2Bny\	de	.	.	.	.	.	.
2c\	.	1e\	.	1c\	-lis	.	.
*custos:F	*	*	*	*	*	*	*
2C/	cae-	.	.	.	.	.	.
!LO:LB:g=original	!	!	!	!	!	!	!
=73-	=73-	=73-	=73-	=73-	=73-	=73-	=73-
*lig	*	*	*	*	*	*	*
1F\	.	0d\	-lis.	1r	.	2f\	.
.	.	.	.	.	.	2a\	.
1G\	.	.	.	1B/	Et	0g\	-lis
*Xlig	*	*	*	*	*	*	*
=74-	=74-	=74-	=74-	=74-	=74-	=74-	=74-
1C/	-lis	1e\	Et	2B/	in-	.	.
.	.	.	.	2c/	-car-	.	.
1r	.	2f\	in-	2d\	-na-	1r	.
.	.	2f\	-car-	2d\	-tus	.	.
=75-	=75-	=75-	=75-	=75-	=75-	=75-	=75-
1E/	Et	2g\	-na-	2e\	eſt	1g\	Et
*	*	*custos:c	*	*	*	*	*
.	.	2g\	-tus	2e\	de	.	.
!	!	!LO:LB:g=original	!	!	!	!	!
2F/	in-	2c/	e(st)	1A/	Spi-	2a\	in-
2F/	-car-	2c/	de	.	.	2a\	-car-
=76-	=76-	=76-	=76-	=76-	=76-	=76-	=76-
2G\	-na-	2e\	Spi-	2G/	-ri-	2b\	-na-
2A\	-tus	2e\	-ri-	1c\	-tu	2cc\	-tus
2F/	e(st)	2d\	-tu	.	.	2a\	e(st)
*	*	*	*	*custos:c	*	*custos:e	*
2G\	de	2d\	San-	2B/	San-	2g\	de
!	!	!	!	!LO:LB:g=original	!	!LO:LB:g=original	!
=77-	=77-	=77-	=77-	=77-	=77-	=77-	=77-
2.C/	Spi-	0c\	-cto.	4.c/	-cto	4.e/	Spi-
.	.	.	.	8d\	.	8f\	-ri-
.	.	.	.	2e\	.	2g\	-tu
4C/	-ri-	.	.	.	.	.	.
1F\	-tu	.	.	1f\	Ex	2.a\	San-
.	.	.	.	.	.	4g\	.
=78-	=78-	=78-	=78-	=78-	=78-	=78-	=78-
1F\	ſan-	1c\	Ex	1.a\	Ma-	2f\	.
.	.	.	.	.	.	2c/	.
1C/	-cto	1e\	Ma-	.	.	1c/	-cto
.	.	.	.	1g\	-ri-	.	.
=79-	=79-	=79-	=79-	=79-	=79-	=79-	=79-
1D/	Ex	1d\	-ri-	.	.	1f\	Ex
.	.	.	.	2.f\	-a	.	.
1F\	Ma-	1d\	-a	.	.	1a\	Ma-
.	.	.	.	4e\	.	.	.
.	.	.	.	2d\	.	.	.
=80-	=80-	=80-	=80-	=80-	=80-	=80-	=80-
2E/	-ri-	1B/	Vir-	2e\	.	1.g\	-ri-
2G\	-a	.	.	1d\	Vir-	.	.
2.D/	Vir-	1A/	-gi-	.	.	.	.
!	!	!	!	!	!	!LO:TX:t=P:♯below:problem	!
.	.	.	.	2d\	-gi-	2f#X\	-a
4D/	-gi-	.	.	.	.	.	.
=81-	=81-	=81-	=81-	=81-	=81-	=81-	=81-
*	*	*	*	*	*	*lig	*
0G\	-ne	0G/	-ne.	0d\	-ne,	1g\	Vir-
.	.	.	.	.	.	1d/	.
*	*	*	*	*	*	*Xlig	*
=82-	=82-	=82-	=82-	=82-	=82-	=82-	=82-
2.F/	Vir-	1c\	Et	1r	.	1.fny\	.
4E/	.	.	.	.	.	.	.
*	*	*	*	*lig	*	*	*
1D/	.	1d\	.	1f\	et	.	.
.	.	.	.	.	.	2f\	-gi-
=83-	=83-	=83-	=83-	=83-	=83-	=83-	=83-
2C/	-gi-	1e\	Ho-	1g\	.	1c/	-ne,
2C/	-ne	.	.	.	.	.	.
*	*	*	*	*Xlig	*	*	*
1F\,<	.	1c\	.	2a\	.	1r	.
.	.	.	.	2A/	Ho-	.	.
=84-	=84-	=84-	=84-	=84-	=84-	=84-	=84-
1F\	et	1f\	.	2.c/	.	1a\	et
.	.	.	.	4d\	.	.	.
2G\	ho-	1e\	.	2e\	.	2g\	ho-
*custos:B-	*	*	*	*	*	*	*
2A\	.	.	.	2a\	.	2cc\	.
!LO:LB:g=original	!	!	!	!	!	!	!
=85-	=85-	=85-	=85-	=85-	=85-	=85-	=85-
1B-X\	.	1d\	.	1f\	-mo	2b-X\	.
.	.	.	.	.	.	2f\	.
*	*	*	*	*lig	*	*	*
2.A\	.	1e\	.	1c\	fac-	2a\	-mo
.	.	.	.	.	.	2.a\	fac-
4G\	.	.	.	.	.	.	.
=86-	=86-	=86-	=86-	=86-	=86-	=86-	=86-
4F/	.	0d\	-mo	1.f\	.	.	.
4E/	.	.	.	.	.	4g\	.
1F\	.	.	.	.	.	4f\	.
.	.	.	.	.	.	4e/	-tus
.	.	.	.	.	.	1f\,<	e(st)
*	*	*	*	*Xlig	*	*	*
2F/	-mo	.	.	2c\	.	.	.
=87-	=87-	=87-	=87-	=87-	=87-	=87-	=87-
*	*	*	*	*	*	*lig	*
2.C/	fac-	1e\	fa-	1c\	-tus	1g\	fa-
4C/	-tus	.	.	.	.	.	.
*	*	*	*	*	*	*custos:b	*
1F\	e(st)	1f\	.	1c\	e(st)	1a\	.
*	*	*	*	*	*	*Xlig	*
!	!	!	!	!	!	!LO:LB:g=original	!
=88-	=88-	=88-	=88-	=88-	=88-	=88-	=88-
*	*	*	*	*	*	*lig	*
1E/	fa-	1g\	.	2e\	fa-	1bny\	.
.	.	.	.	2g\	.	.	.
1F\	.	1c\	.	4f\	.	1a\	.
.	.	.	.	4g\	.	.	.
*	*	*	*	*custos:g	*	*	*
.	.	.	.	2a\	.	.	.
!	!	!	!	!LO:LB:g=original	!	!	!
*	*	*	*	*	*	*Xlig	*
=89-	=89-	=89-	=89-	=89-	=89-	=89-	=89-
2G\	.	1e\	.	2g\	.	2b\	.
2A\	.	.	.	1c\	.	1a\	.
2F/	.	1d\	-ctus	.	.	.	.
2G\	-ctus	.	.	2B/	-ctus	2g\	-ctus
=90-	=90-	=90-	=90-	=90-	=90-	=90-	=90-
*	*	*custos:c	*	*	*	*	*
1C/	e(st).	0c\	eſt.	0c\	e(st)	1e\	e(st).
2F/	Cru-	.	.	.	.	1r	.
2F/	-ci-	.	.	.	.	.	.
!	!	!LO:LB:g=original	!	!	!	!	!
=91-	=91-	=91-	=91-	=91-	=91-	=91-	=91-
2A\	-fi-	2c/	Cru-	1r	.	2e/	Cru-
2A\	-xus	2c/	-ci-	.	.	2e/	-ci-
2G\	e-	2e\	-fi-	2B/	Cru-	2g\	-fi-
2G\	-ti-	2e\	-xus	2B/	-ci-	2g\	-xus
=92-	=92-	=92-	=92-	=92-	=92-	=92-	=92-
1B-X\	-am	2d\	e-	2d\	-fi-	2f\	e-
.	.	2d\	-ti-	2d\	-xus	2f\	-ti-
1G\	pro	1d\	-am	2B/	e-	1g\	-am
.	.	.	.	2B/	-ti-	.	.
=93-	=93-	=93-	=93-	=93-	=93-	=93-	=93-
2A\	no-	1c\	p(ro)	2c/	-am	2e/	p(ro)
2G\	.	.	.	2d\	pro	1g\	no-
1D/	.	1A/	no-	2.d\	no-	.	.
!	!	!	!	!	!	!LO:TX:t=P:♯below:problem	!
.	.	.	.	.	.	2f#X\	.
.	.	.	.	4c/	.	.	.
=94-	=94-	=94-	=94-	=94-	=94-	=94-	=94-
2.G\	-bis	0G/	-bis	2.B/	.	1g\	.
4F/	.	.	.	4A/	.	.	.
*	*	*	*	*lig	*	*	*
2.E/	.	.	.	1G/	.	2.g\	-bis
4D/	.	.	.	.	.	4fny\	.
=95-	=95-	=95-	=95-	=95-	=95-	=95-	=95-
2C/	.	1c\	ſub	1A/	.	1e\	.
*custos:c	*	*	*	*	*	*	*
2c\	ſub	.	.	.	.	.	.
!LO:LB:g=original	!	!	!	!	!	!	!
*	*	*	*	*Xlig	*	*	*
2c\	Pon-	1d\	Pon-	1G/	-bis	1r	.
2Bny\	-ti-	.	.	.	.	.	.
=96-	=96-	=96-	=96-	=96-	=96-	=96-	=96-
2.c\	-o	1e\	-ti-	1r	.	1g\	ſub
4B\	.	.	.	.	.	.	.
4A\	.	1c\	-o	1c\	ſub	1a\	Pon-
4G\	.	.	.	.	.	.	.
4F/	.	.	.	.	.	.	.
4E/	.	.	.	.	.	.	.
=97-	=97-	=97-	=97-	=97-	=97-	=97-	=97-
*lig	*	*	*	*	*	*	*
1D/	.	1f\	Pi-	1d\	Pon-	1b\	-ti-
1C/	.	1e\	.	2e\	.	2g\	-o
.	.	.	.	2c/	-ti-	1cc\	Pi-
*Xlig	*	*	*	*	*	*	*
=98-	=98-	=98-	=98-	=98-	=98-	=98-	=98-
2D/	Pi-	1d\	.	2f\	-o	.	.
2G\	.	.	.	2d\	Pi-	2b\	-la-
*lig	*	*	*	*	*	*	*
1C/	-la-	1e\	-la-	2.c/	-la-	2a\	.
.	.	.	.	.	.	1g\	.
.	.	.	.	4B/	.	.	.
=99-	=99-	=99-	=99-	=99-	=99-	=99-	=99-
1D/	.	0d\,<	-to	1A/	.	.	.
!	!	!	!	!	!	!LO:TX:t=P:♯below:problem	!
.	.	.	.	.	.	2f#X\	.
*	*	*	*	*	*	*custos:g	*
*Xlig	*	*	*	*	*	*	*
*	*	*	*	*custos:A	*	*	*
!	!	!	!	!	!	!LO:LB:g=original	!
1G\	-to	.	.	1B/	-to	0g\	-to
!	!	!	!	!LO:LB:g=original	!	!	!
=100-	=100-	=100-	=100-	=100-	=100-	=100-	=100-
1r	.	1e\	paſ-	2r	.	.	.
.	.	.	.	1A/	paſ-	.	.
1D/	paſ-	1f\,<	-sus	.	.	1r	.
.	.	.	.	1B/	-sus	.	.
=101-	=101-	=101-	=101-	=101-	=101-	=101-	=101-
1E/	-sus	1g\,<	et	.	.	1g\	paſ-
.	.	.	.	1c\	et	.	.
1F\	et	1c\	ſe-	.	.	1a\	-sus
.	.	.	.	2A/	ſe-	.	.
=102-	=102-	=102-	=102-	=102-	=102-	=102-	=102-
2G\	ſe-	1e\	-pul-	2G/	-pul-	2b\	et
2A\	.	.	.	1c\	.	2a\	ſe-
2F/	-pul-	1d\	-tus	.	.	2a\	-pul-
2G\	-tus	.	.	2B/	-tus	2g\	-tus
=103-	=103-	=103-	=103-	=103-	=103-	=103-	=103-
0C/	est	0c\	e(st).	0c\	e(st).	0e\	e(st).
=104-	=104-	=104-	=104-	=104-	=104-	=104-	=104-
1c\	Et	1c\	Et	2r	.	1g\	Et
.	.	.	.	2c/	Et	.	.
2G\	re-	2d\	re-	2c/	re-	2g\	re-
2G\	-ſur-	2d\	-ſu-	2B/	-ſu-	2g\	-ſur-
=105-	=105-	=105-	=105-	=105-	=105-	=105-	=105-
1c\	-re-	1e\	-rre-	1c\	-rre-	1g\	-re-
*	*	*custos:e	*	*	*	*	*
2F/	-xit	1f\	-xit	2c/	-xit	1a\	-xit
2D/	ter-	.	.	2.d\	ter-	.	.
!	!	!LO:LB:g=original	!	!	!	!	!
=106-	=106-	=106-	=106-	=106-	=106-	=106-	=106-
2E/	-ti-	2e\	ter-	.	.	1g\	ter-
.	.	.	.	4d\	-ti-	.	.
2E/	-a	2e\	-ti-	1c\	-a	.	.
1G\	di-	2d\	-a	.	.	2g\	-ti-
.	.	2d\	di-	2B/	di-	2g\	-a
=107-	=107-	=107-	=107-	=107-	=107-	=107-	=107-
1C/	-e	0c\	-e	1c\	-e.	1e\	di-
*custos:A	*	*	*	*	*	*	*
!LO:SIC:v:l:t=custos cund.	!	!	!	!	!	!	!
1F\	ſe-	.	.	1A/	ſe-	1fny\	-e.
!LO:PB:g=original	!	!	!	!	!	!	!
=108-	=108-	=108-	=108-	=108-	=108-	=108-	=108-
1A\	-cun-	1c\	ſe-	1c\	-cun-	1r	.
1G\	-dum	1e\	.	1B/	-dum	1g\	ſe-
=109-	=109-	=109-	=109-	=109-	=109-	=109-	=109-
1G\	ſcri-	1d\	-cun-	4B/	ſcri-	1b\	-cun-
.	.	.	.	4c/	.	.	.
.	.	.	.	4d\	.	.	.
.	.	.	.	4e\	.	.	.
1.D/	-ptu-	1d\	-dum	1.f\	.	1.a\	-dum
=110-	=110-	=110-	=110-	=110-	=110-	=110-	=110-
.	.	1B/	ſcri-	.	.	.	.
2G\	.	.	.	2d\	.	1g\	ſcri-
1D/	.	1A/	-ptu-	1d\	-ptu-	.	.
!	!	!	!	!	!	!LO:TX:t=P:♯below:problem	!
.	.	.	.	.	.	2f#X\	.
=111-	=111-	=111-	=111-	=111-	=111-	=111-	=111-
1G\	-ras	0G/	-ras	0B/	-ras	1.g\	-ptu-
1G\	Et	.	.	.	.	.	.
.	.	.	.	.	.	2d/	.
=112-	=112-	=112-	=112-	=112-	=112-	=112-	=112-
*	*	*	*	*custos:g	*	*	*
*	*	*	*	*custos:a	*	*	*
1A\	a-	1c\	Et	1e\	et	1a\	-ras
*	*	*	*	*	*	*custos:g	*
!	!	!	!	!LO:PB:g=original	!	!	!
1B\	-ſcen-	1d\	aſ-	1g\	a-	1r	.
!	!	!	!	!	!	!LO:PB:g=original	!
=113-	=113-	=113-	=113-	=113-	=113-	=113-	=113-
2.c\	-dit	1e\	-cen-	2.c/	-ſcen-	1g\	et
4B\	.	.	.	4d\	.	.	.
1A\	.	1c\	-dit	1e\	.	1a\	aſ-
=114-	=114-	=114-	=114-	=114-	=114-	=114-	=114-
1D/	in	1f\	in	1d\	-dit	1b\	-cen-
1C/	cae-	1e\	.	1G/	in	2.cc\	-dit
.	.	.	.	.	.	8b\L	.
.	.	.	.	.	.	8a\J	.
=115-	=115-	=115-	=115-	=115-	=115-	=115-	=115-
2.G\	.	1d\	.	1.B/	cae-	1.g\	.
4F/	.	.	.	.	.	.	.
4E/	.	1e\	cae-	.	.	.	.
4D/	.	.	.	.	.	.	.
2C/	.	.	.	2c/	.	1g\	in
=116-	=116-	=116-	=116-	=116-	=116-	=116-	=116-
1D/	.	0d\	-lum.	1A/	.	.	.
!	!	!	!	!	!	!LO:TX:t=P:♯below:problem	!
.	.	.	.	.	.	2f#X\	.
1G\	-lum	.	.	1B/	-lum	1.g\	cae-
=117-	=117-	=117-	=117-	=117-	=117-	=117-	=117-
1r	.	1e\	ſe-	2r	.	.	.
.	.	.	.	1A/	ſe-	2c/	.
1D/	ſe-	2f\	-det	.	.	1d/	-lum
.	.	2f\	ad	2B/	-det	.	.
=118-	=118-	=118-	=118-	=118-	=118-	=118-	=118-
2E/	-det	1g\	dex-	2B/	ad	1g\	ſe-
2E/	ad	.	.	1c\	dex-	.	.
1F\	dex-	1c\	-te-	.	.	2a\	-det
.	.	.	.	2A/	-te-	2a\	ad
=119-	=119-	=119-	=119-	=119-	=119-	=119-	=119-
2G\	-te-	1e\	-ram	2G/	-ram	2b\	dex-
2A\	-ram	.	.	1c\	Pat-	1a\	-te-
2F/	Pa-	1d\	P(at)-	.	.	.	.
*custos:C	*	*	*	*	*	*	*
2G\	.	.	.	2B/	.	2g\	-ram
!LO:LB:g=original	!	!	!	!	!	!	!
=120-	=120-	=120-	=120-	=120-	=120-	=120-	=120-
0C/	-tris	0c\	-ris.	1c\	-ris.	1g\	P(at)-
.	.	.	.	1c\	Et	1e\	-ris.
=121-	=121-	=121-	=121-	=121-	=121-	=121-	=121-
*	*	*custos:e	*	*	*	*	*
1r	.	1c\	Et	2e\	i-	1e\	Et
.	.	.	.	2e\	-te-	.	.
!	!	!LO:LB:g=original	!	!	!	!	!
1E/	Et	2e\	i-	2B/	-rum.	2g\	i-
.	.	2e\	-te-	2c/	Ven-	2g\	-te-
=122-	=122-	=122-	=122-	=122-	=122-	=122-	=122-
1G\	i-	1d\	-rum	2c/	-tu-	1g\	-rum.
.	.	.	.	2B/	-rus	.	.
1F\	-te-	1d\	Ven-	1A/	e(st)	1a\	Ven-
=123-	=123-	=123-	=123-	=123-	=123-	=123-	=123-
1G\	-rum.	1B/	-tu-	1.d\	Ven-	1.g\	-tu-
2D/	Ven-	1A/	-rus	.	.	.	.
*	*	*	*	*custos:d	*	*	*
!	!	!	!	!	!	!LO:TX:t=P:♯below:problem	!
2A\	.	.	.	2c/	.	2f#X\	-rus
!	!	!	!	!LO:LB:g=original	!	!	!
=124-	=124-	=124-	=124-	=124-	=124-	=124-	=124-
*	*	*	*	*	*	*custos:g	*
2B\	-tu-	0G/	eſt	2d\	-tu-	1g\	e(st).
1c\	.	.	.	2e\	-rus	.	.
!	!	!	!	!	!	!LO:LB:g=original	!
.	.	.	.	1d\	e(st).	2r	.
2B\	-rus	.	.	.	.	1g\	Cum
=125-	=125-	=125-	=125-	=125-	=125-	=125-	=125-
2c\	e(st)	1c\	cum	1r	.	.	.
1F\	Cum	.	.	.	.	1a\	glo-
.	.	1d\	glo-	2r	.	.	.
1G\	.	.	.	1B/	Cum	2.g\	.
=126-	=126-	=126-	=126-	=126-	=126-	=126-	=126-
.	.	1e\	-ri-	.	.	.	.
.	.	.	.	.	.	4fny\	-ri-
2.A\	glo-	.	.	2.c/	glo-	1e\	-a
.	.	1c\	-a	.	.	.	.
4G\	.	.	.	4B/	-ri-	.	.
4F/	.	.	.	1A/	-a	2.f\	iu-
4E/	-ri-	.	.	.	.	.	.
=127-	=127-	=127-	=127-	=127-	=127-	=127-	=127-
1D/	-a	1f\	.	.	.	.	.
.	.	.	.	.	.	4g\	.
.	.	.	.	1d\	iu-	2a\	.
2.E/	iu-	1e\	iu-	.	.	1g\	-di-
.	.	.	.	1c\	-di-	.	.
4F/	.	.	.	.	.	.	.
=128-	=128-	=128-	=128-	=128-	=128-	=128-	=128-
*lig	*	*	*	*	*	*	*
1G\	-di-	1d\	-di-	.	.	1g\	-ca-
.	.	.	.	2B/	-ca-	.	.
1C/	.	1e\	-ca-	2.c/	-re	1g\	-re
.	.	.	.	4B/	.	.	.
*Xlig	*	*	*	*	*	*	*
=129-	=129-	=129-	=129-	=129-	=129-	=129-	=129-
1D/	-ca-	0d\	-re	1A/	.	2g/	iu-
!	!	!	!	!	!	!LO:TX:t=P:♯below:problem	!
.	.	.	.	.	.	2f#X/	-di-
1G\	-re	.	.	1B/	Ui-	1g\	-ca-
=130-	=130-	=130-	=130-	=130-	=130-	=130-	=130-
1r	.	1e\	Vi-	1c\	-uos	1g\	-re
1D/	Vi-	1f\	-uos	1d\	et	1r	.
=131-	=131-	=131-	=131-	=131-	=131-	=131-	=131-
1E/	-uos	1g\	.	1B/	.	1g\	Ui-
1F\	et	1c\	et	2.A/	mor-	1a\	-uos
.	.	.	.	4B/	.	.	.
=132-	=132-	=132-	=132-	=132-	=132-	=132-	=132-
1C/	mor-	1e\	mor-	1.c\	.	1g\	.
2.G\	.	1d\	-tu-	.	.	2.g\	et
.	.	.	.	2B/	-tu-	.	.
4G\	-tu-	.	.	.	.	4fny\	mor-
=133-	=133-	=133-	=133-	=133-	=133-	=133-	=133-
*custos:F	*	*	*	*	*	*	*
1C/	-os	0c\	-os	1c\	-os	1e\	.
!LO:LB:g=original	!	!	!	!	!	!	!
1F\	Cu-	.	.	1A/	Cu-	2f\	.
.	.	.	.	.	.	2f\	-tu-
=134-	=134-	=134-	=134-	=134-	=134-	=134-	=134-
1A\	-ius	1c\	Cu-	1c\	-ius	1e\	-os
1.G\	re-	1e\	-ius	1B/	re-	1g\	cu-
=135-	=135-	=135-	=135-	=135-	=135-	=135-	=135-
*	*	*	*	*	*	*custos:a	*
.	.	1d\	re-	4B/	-gni	1b\	-ius
.	.	.	.	4c/	.	.	.
2G\	-gni	.	.	4d\	.	.	.
.	.	.	.	4e\	.	.	.
*	*	*	*	*custos:f	*	*	*
!	!	!	!	!	!	!LO:LB:g=original	!
1D/	non	1d\	-gni	2f\	.	1a\	re-
!	!	!	!	!LO:LB:g=original	!	!	!
.	.	.	.	2f\	non	.	.
=136-	=136-	=136-	=136-	=136-	=136-	=136-	=136-
2F/	e-	2c/	non	2f\	e-	2a\	-gni
2G\	-rit	2B/	e-	2d\	-rit	2g\	non
1D/	fi-	2A/	-rit	1d\	fi-	2g\	e-
!	!	!	!	!	!	!LO:TX:t=P:♯below:problem	!
.	.	2A/	fi-	.	.	2f#X\	-rit
=137-	=137-	=137-	=137-	=137-	=137-	=137-	=137-
0G\	-nis	0G/	-nis	2.d\	-nis.	1g\	fi-
.	.	.	.	4c/	.	.	.
.	.	.	.	1B/	.	1g\	-nis.
!	!	!LO:PB:g=original	!	!	!	!	!
=138-	=138-	=138-	=138-	=138-	=138-	=138-	=138-
1.F\	Et	1c\	Et	2r	.	2a\	Et
.	.	.	.	1A/	Et	1fny\	in
.	.	2d\	in	.	.	.	.
1G\	in	2d\	Spi-	1B/	in	2d/	ſpi-
=139-	=139-	=139-	=139-	=139-	=139-	=139-	=139-
.	.	1e\	-ri-	.	.	2g\	-ri-
2.A\	Spi-	.	.	2.c/	ſpi-	2e/	-tum
.	.	1f\	-tum	.	.	1.a\	ſan-
4A\	-ri-	.	.	4c/	-ri-	.	.
2d\	-tu(m)	.	.	2d\	-tum.	.	.
=140-	=140-	=140-	=140-	=140-	=140-	=140-	=140-
4d\	ſan-	2e\	ſan-	2A/	ſan-	.	.
4c\	-ctu(m)	.	.	.	.	.	.
1c\	Do-	2e\	-ctu(m)	2A/	-ctu(m)	2e/	-ctu(m)
.	.	2d\	D(o-	2F/	Do-	2f\	Do-
2B\	-mi-	2d\	-mi)-	2G/	-mi-	2d/	.
=141-	=141-	=141-	=141-	=141-	=141-	=141-	=141-
1c\	-num	0c\	-num	1c\	-num	2.e/	.
.	.	.	.	.	.	4f\	-mi-
1r	.	.	.	2.c/	et	1g\	-num
.	.	.	.	4d\	.	.	.
=142-	=142-	=142-	=142-	=142-	=142-	=142-	=142-
2r	.	1c\	et	4e\	.	2r	.
.	.	.	.	4f\	.	.	.
2.C/	et	.	.	2g\	.	2.e/	et
.	.	1e\	Ui-	0g\	Vi-	.	.
4D/	.	.	.	.	.	4f\	.
4E/	.	.	.	.	.	4g\	.
4F/	.	.	.	.	.	4a\	.
=143-	=143-	=143-	=143-	=143-	=143-	=143-	=143-
2G\	.	1d\	-ui-	.	.	2b\	.
4F/	.	.	.	.	.	4a\	.
4E/	.	.	.	.	.	4g\	.
2F/	.	1d\	-fi-	1d\	-ui-	2a\	Ui-
2G\	Vi-	.	.	.	.	2g\	-ui-
=144-	=144-	=144-	=144-	=144-	=144-	=144-	=144-
!	!	!	!	!	!	!LO:TX:t=P:♯below:problem	!
2D\	-ui-	1B/	-can-	1.d\	-fi-	2f#X\	.
1G\	-fi-	.	.	.	.	2g\	-fi-
.	.	1A/	-tem.	.	.	2a\	.
*custos:E	*	*	*	*custos:c	*	*custos:g	*
1F\	-can-	.	.	2A/	.	2d/	-can-
!	!	!	!	!LO:LB:g=original	!	!LO:LB:g=original	!
=145-	=145-	=145-	=145-	=145-	=145-	=145-	=145-
.	.	0G/	.	4c/	-can-	1g\	.
.	.	.	.	4d\	.	.	.
!LO:LB:g=original	!	!	!	!	!	!	!
2E/	.	.	.	2e\	.	.	.
2.G\	.	.	.	2.B/	.	1g\	-tem
4F/	.	.	.	4A/	.	.	.
=146-	=146-	=146-	=146-	=146-	=146-	=146-	=146-
2E/	.	2c/	Q(ui)	2G/	.	1r	.
2F/	.	2c/	ex	1c\	.	.	.
1D/	.	2d\	P(at)-	.	.	2fny\	q(ui)
.	.	2d\	-re	2B/	.	2f\	ex
=147-	=147-	=147-	=147-	=147-	=147-	=147-	=147-
2C/	-tem	2e\	fi-	1c\	-tem	2g\	Pa-
4c\	q(ui)	2e\	-li-	.	.	2g\	-tre
4B\	.	.	.	.	.	.	.
4A\	.	2c/	-o-	2c/	q(ui)	1a\	Fi-
4G\	.	.	.	.	.	.	.
2A\	.	2c/	-q(ue)	2c/	ex	.	.
=148-	=148-	=148-	=148-	=148-	=148-	=148-	=148-
2B-X\	ex	1f\	pro-	2d\	P(at)-	1f\	-li-
1d\	Pa-	.	.	2d\	-re	.	.
.	.	1e\	.	2e\	fi-	2a\	-o-
2c\	-tre	.	.	2c/	-li-	4e/	-q(ue)
.	.	.	.	.	.	4f\	.
=149-	=149-	=149-	=149-	=149-	=149-	=149-	=149-
2c\	fi-	1d\	.	2G/	-o-	0g\	pro-
2Bny\	-li-	.	.	4G/	-q(ue)	.	.
.	.	.	.	4G/	pro-	.	.
2c\	-o-	1e\	-ce-	1c\	-ce-	.	.
2C/	-q(ue)	.	.	.	.	.	.
=150-	=150-	=150-	=150-	=150-	=150-	=150-	=150-
1F\	pro-	0d\	-dit	1A/	-dit	2f\	-ce-
.	.	.	.	.	.	2a\	.
1G\	-ce-	.	.	2r	.	0g\	.
.	.	.	.	1G/	Qui	.	.
=151-	=151-	=151-	=151-	=151-	=151-	=151-	=151-
2C/	-dit.	1e\	Qui	.	.	.	.
2C/	Qui	.	.	1A/	cu(m)	.	.
1D/	c(um)	1f\	cum	.	.	1d/	-dit.
.	.	.	.	1B/	Pa-	.	.
=152-	=152-	=152-	=152-	=152-	=152-	=152-	=152-
*	*	*custos:c	*	*	*	*	*
1E/	Pa-	1g\	Pa-	.	.	1g\	Q(ui)
.	.	.	.	1c\	-tre	.	.
!	!	!LO:LB:g=original	!	!	!	!	!
1F\	-tre	2c/	-tre	.	.	1a\	cum
.	.	2c/	et	2A/	.	.	.
=153-	=153-	=153-	=153-	=153-	=153-	=153-	=153-
1C/	et	1e\	fi-	2G/	et	2cc\	Pa-
.	.	.	.	1c\	fi-	4cc\	-tre
.	.	.	.	.	.	4cc\	et
2F/	fi-	1d\	-li-	.	.	2a\	Fi-
2G\	-li-	.	.	2B/	-li-	2g\	-li-
=154-	=154-	=154-	=154-	=154-	=154-	=154-	=154-
*	*	*	*	*custos:c	*	*	*
0C/	-o	0c\	-o	1c\	-o	2.e/	-o
.	.	.	.	.	.	4f\	.
!	!	!	!	!LO:LB:g=original	!	!	!
.	.	.	.	1c\	ſi-	1g\	.
=155-	=155-	=155-	=155-	=155-	=155-	=155-	=155-
1r	.	1c\	ſi-	1e\	-mul	1e\	ſi-
*custos:G	*	*	*	*	*	*	*
1E/	ſi-	1e\	-mul	2B/	a-	1g\	-mul
.	.	.	.	1c\	-do-	.	.
!LO:LB:g=original	!	!	!	!	!	!	!
=156-	=156-	=156-	=156-	=156-	=156-	=156-	=156-
1G\	-mul	0d\	a-	.	.	1g\	a-
.	.	.	.	2B/	.	.	.
*	*	*	*	*	*	*custos:g	*
!	!	!	!	!LO:TX:b:t=re	!	!	!
1F\	a-	.	.	1A/	-ra-	1.a\	-do-
=157-	=157-	=157-	=157-	=157-	=157-	=157-	=157-
1G\	-do-	1B/	-do-	4B/	.	.	.
.	.	.	.	4c/	.	.	.
!	!	!	!	!	!	!LO:LB:g=original	!
.	.	.	.	2d\	.	1g\	-ra-
1D/	-ra-	1A/	-ra-	1d\	-tur	.	.
!	!	!	!	!	!	!LO:TX:t=P:♯below:problem	!
.	.	.	.	.	.	2f#X\	.
=158-	=158-	=158-	=158-	=158-	=158-	=158-	=158-
1G\	-t(ur)	0G/	-tur	1d\	et	0g\	-tur
2r	.	.	.	2.B/	con-	.	.
2G\	et	.	.	.	.	.	.
.	.	.	.	4B/	-glo-	.	.
=159-	=159-	=159-	=159-	=159-	=159-	=159-	=159-
2.F/	con-	1c\	et	1A/	-ri-	2r	.
.	.	.	.	.	.	2a\	et
4F/	-glo-	.	.	.	.	.	.
2E/	-ri-	1e\	con-	2B/	-fi-	2.g\	con-
2C/	-fi-	.	.	1c\	-ca-	.	.
.	.	.	.	.	.	4g\	-glo-
=160-	=160-	=160-	=160-	=160-	=160-	=160-	=160-
2.D/	-ca-	1d\	-glo-	.	.	2fny\	-ri-
.	.	.	.	2B/	.	2d/	-fi-
4E/	.	.	.	.	.	.	.
2F/	.	1d\	-ri-	2A/	.	2a\	-ca-
2.G\	.	.	.	4B/	.	2g\	.
.	.	.	.	4c/	.	.	.
=161-	=161-	=161-	=161-	=161-	=161-	=161-	=161-
.	.	1B/	-fi-	2d\	.	2g\	-tur
4F/	.	.	.	.	.	.	.
2E/	.	.	.	2e\	.	2g\	et
1.F\	.	1A/	-ca-	1c\	-t(ur)	2.f\	con-
.	.	.	.	.	.	4f\	-glo-
=162-	=162-	=162-	=162-	=162-	=162-	=162-	=162-
.	.	0G/	-tur.	1r	.	2g\	-ri-
4E/	.	.	.	.	.	2g\	-fi-
4D/	.	.	.	.	.	.	.
*lig	*	*	*	*	*	*	*
1E/	.	.	.	2G/	q(ui)	1e\	-ca-
.	.	.	.	2G/	lo-	.	.
=163-	=163-	=163-	=163-	=163-	=163-	=163-	=163-
1F\	.	2c\	Qui	2A/	-cu-	1a\	-tur.
.	.	2c\	lo-	2A/	-tus	.	.
*Xlig	*	*	*	*	*	*	*
*	*	*	*	*custos:e	*	*	*
1D/	-t(ur)	2d\	-cu-	1A/	est	2f\	q(ui)
.	.	2d\	-tus	.	.	2f\	lo-
!	!	!	!	!LO:PB:g=original	!	!	!
=164-	=164-	=164-	=164-	=164-	=164-	=164-	=164-
1r	.	1e\	e(st)	2.e\	per	2g\	-cu-
.	.	.	.	.	.	2g\	-tus
.	.	.	.	4f\	.	.	.
2C/	q(ui)	1c\	.	1g\	.	1e\	e(st)
2C/	lo-	.	.	.	.	.	.
=165-	=165-	=165-	=165-	=165-	=165-	=165-	=165-
2D/	-cu-	1f\	per	1.d\	pro-	1a\	per
2D/	-tus	.	.	.	.	.	.
*custos:F	*	*	*	*	*	*	*
!LO:SIC:v:l:t=custos p(er)p(ro)phe-	!	!	!	!	!	!	!
1E/	est	1e\	.	.	.	1g\	.
.	.	.	.	1c\	-phe-	.	.
!LO:PB:g=original	!	!	!	!	!	!	!
=166-	=166-	=166-	=166-	=166-	=166-	=166-	=166-
2F/	Pro-	1d\	Pro-	.	.	2a\	Pro-
2G\	-phe-	.	.	2B/	.	2b\	-phe-
*lig	*	*	*	*	*	*	*
*	*	*custos:d	*	*	*	*	*
1C/	.	1e\	-phe-	2.c/	.	2a\	.
.	.	.	.	.	.	1g\	.
.	.	.	.	4B/	.	.	.
!	!	!LO:LB:g=original	!	!	!	!	!
=167-	=167-	=167-	=167-	=167-	=167-	=167-	=167-
1D/	.	0d\	-tas	1A/	.	.	.
!	!	!	!	!	!	!LO:TX:t=P:♯below:problem	!
.	.	.	.	.	.	2f#X\	.
*	*	*	*	*	*	*custos:g	*
*Xlig	*	*	*	*	*	*	*
!	!	!	!	!	!	!LO:PB:g=original	!
1G\	-tas	.	.	1B/	-tas.	0g\	.
=168-	=168-	=168-	=168-	=168-	=168-	=168-	=168-
1r	.	1e\	Et	2r	.	.	.
.	.	.	.	1A/	Et	.	.
1D/	Et	2f\	U-	.	.	1d/	-tas
.	.	2f\	-nam	2B/	u-	.	.
=169-	=169-	=169-	=169-	=169-	=169-	=169-	=169-
2E/	U-	1g\	ſan-	2B/	-nam	1g\	Et
2E/	-nam	.	.	1c\	ſan-	.	.
1F\	ſan-	2c\	-ctam	.	.	2a\	u-
.	.	2c\	Ca-	2A/	-cta(m)	2a\	-nam
=170-	=170-	=170-	=170-	=170-	=170-	=170-	=170-
2G\	-cta(m)	1e\	-tho-	2G/	Ca-	2b\	ſan-
2A\	Ca-	.	.	1c\	-tho-	1a\	-cta(m)
2F/	-tho-	1d\	-li-	.	.	.	.
2G\	-li-	.	.	2B/	-li-	2g\	Ca-
=171-	=171-	=171-	=171-	=171-	=171-	=171-	=171-
0C/	-cam.	0c\	-cam	1c\	-cam.	2.g\	-tho-
.	.	.	.	.	.	4g\	-li-
.	.	.	.	1c\	Et	1e\	-cam
=172-	=172-	=172-	=172-	=172-	=172-	=172-	=172-
1r	.	1c\	et	2e\	A-	1e\	et
.	.	.	.	2e\	-po-	.	.
1E/	et	2e\	A-	2B/	-ſto-	2g\	A-
.	.	2e\	-po-	2c/	-li-	2g\	-po-
=173-	=173-	=173-	=173-	=173-	=173-	=173-	=173-
2G\	A-	2d\	-ſto-	2c/	-cam	2.g\	-ſto-
*	*	*	*	*custos:A	*	*	*
2G\	-po-	2d\	-li-	2B/	Ec-	.	.
.	.	.	.	.	.	4g\	-li-
!	!	!	!	!LO:LB:g=original	!	!	!
2.A\	-ſto-	2c\	-ca(m)	2A/	-cle-	1e\	-cam
.	.	2B/	Ec-	2B/	.	.	.
4G\	-li-	.	.	.	.	.	.
=174-	=174-	=174-	=174-	=174-	=174-	=174-	=174-
2F/	-cam	1A/	-cle-	4c/	.	2fny\	Ec-
.	.	.	.	4d\	.	.	.
2C/	Ec-	.	.	2e\	.	1g\	-cle-
2.D/	-cle-	1A/	-ſi-	2.d\	.	.	.
!	!	!	!	!	!	!LO:TX:t=P:♯below:problem	!
.	.	.	.	.	.	2f#X\	-ſi-
4D/	-ſi-	.	.	4d\	-ſi-	.	.
=175-	=175-	=175-	=175-	=175-	=175-	=175-	=175-
0G\	-am.	0G/	-am.	0B/	-am	0g\	-am.
=176-	=176-	=176-	=176-	=176-	=176-	=176-	=176-
1.F\	Con-	1c\	Con-	2r	.	2a\	Con-
.	.	.	.	1A/	Con-	1fny\	-fi-
.	.	2d\	-fi-	.	.	.	.
2G\	-fi-	2d\	-te-	2B/	-fi-	2d/	-te-
=177-	=177-	=177-	=177-	=177-	=177-	=177-	=177-
2G\	-te-	1e\	-or	2B/	-te-	2g\	-or
*custos:d	*	*	*	*	*	*	*
1A\	-or	.	.	1c\	-or	2e/	u-
.	.	1f\	U-	.	.	1.a\	-num
!LO:LB:g=original	!	!	!	!	!	!	!
2d\	U-	.	.	2d\	U-	.	.
=178-	=178-	=178-	=178-	=178-	=178-	=178-	=178-
4d\	-num	2e\	-num	2A/	-num	.	.
4c\	Bap-	.	.	.	.	.	.
*	*	*	*	*	*	*custos:f	*
1c\	-ti-	2e\	Bap-	2A/	Bap-	2e/	bap-
!	!	!	!	!	!	!LO:LB:g=original	!
.	.	1d\	-ti-	2F/	-ti-	2f\	-ti-
2B\	.	.	.	2G/	-ſma	2d/	.
=179-	=179-	=179-	=179-	=179-	=179-	=179-	=179-
*	*	*custos:c	*	*	*	*	*
0c\	-ſma	0c\	-ſma.	1c\,<	.	2.e/	-ſma
.	.	.	.	.	.	4f\	.
.	.	.	.	2c/	in	1g\	.
.	.	.	.	2c/	re-	.	.
!	!	!LO:LB:g=original	!	!	!	!	!
=180-	=180-	=180-	=180-	=180-	=180-	=180-	=180-
1r	.	2c/	in	2e\	-miſ-	2e/	in
.	.	2c/	re-	2e\	-si-	2e/	re-
2E/	in	2e\	-miſ-	2B/	-o-	2g\	-miſ-
2E/	re-	2e\	-si-	2c/	-nem	2g\	-si-
=181-	=181-	=181-	=181-	=181-	=181-	=181-	=181-
2G\	-miſ-	1d\	-o-	2c/	pec-	2g\	-o-
2G\	-si-	.	.	2B/	-ca-	2g\	-nem
2F/	-o-	1d\	-nem	1.A/	-to-	2a\	pec-
2F/	-nem	.	.	.	.	2a\	-ca-
=182-	=182-	=182-	=182-	=182-	=182-	=182-	=182-
2F/	pec-	2c/	pec-	.	.	2a\	-to-
2G\	-ca-	2B/	-ca-	1d\	.	1g\	.
2D/	-to-	1A/	-to-	.	.	.	.
*	*	*	*	*custos:d	*	*	*
!	!	!	!	!	!	!LO:TX:t=P:♯below:problem	!
2A\	.	.	.	2c/	.	2f#X\	.
!	!	!	!	!LO:LB:g=original	!	!	!
=183-	=183-	=183-	=183-	=183-	=183-	=183-	=183-
2B\	.	0G/	-rum.	2d\	.	1g\	-rum.
1c\	.	.	.	2e\	.	.	.
.	.	.	.	1d\	-rum	2r	.
2B\	.	.	.	.	.	1g\	et
=184-	=184-	=184-	=184-	=184-	=184-	=184-	=184-
2c\	-rum	1c\	Et	1r	.	.	.
1F\	et	.	.	.	.	1a\	ex-
.	.	1d\	ex-	2r	.	.	.
1G\	ex-	.	.	1B/	et	2.g\	-pe-
=185-	=185-	=185-	=185-	=185-	=185-	=185-	=185-
.	.	1e\	-pe-	.	.	.	.
.	.	.	.	.	.	4fny\	.
2.A\	-pe-	.	.	2.c/	ex-	1e\	.
.	.	1c\	.	.	.	.	.
4G\	.	.	.	4B/	.	.	.
4F/	.	.	.	1A/	.	2.f\	.
4E/	.	.	.	.	.	.	.
=186-	=186-	=186-	=186-	=186-	=186-	=186-	=186-
1D/	.	1f\	.	.	.	.	.
.	.	.	.	.	.	4g\	.
*	*	*	*	*lig	*	*	*
.	.	.	.	1d\	-pe-	2a\	.
2.E/	.	1e\	.	.	.	1g\	-cto
.	.	.	.	1c\	.	.	.
4F/	.	.	.	.	.	.	.
*	*	*	*	*Xlig	*	*	*
=187-	=187-	=187-	=187-	=187-	=187-	=187-	=187-
*lig	*	*	*	*	*	*	*
1G\	.	1d\	.	.	.	1.g\	et
.	.	.	.	2B/	.	.	.
*custos:D	*	*	*	*	*	*	*
1C/	.	1e\	.	2.c/	.	.	.
*	*	*	*	*	*	*custos:f#	*
.	.	.	.	.	.	1g\	ex-
.	.	.	.	4B/	.	.	.
*Xlig	*	*	*	*	*	*	*
!LO:LB:g=original	!	!	!	!	!	!	!
=188-	=188-	=188-	=188-	=188-	=188-	=188-	=188-
1D/	.	0d\	-cto	1A/	.	.	.
!	!	!	!	!	!	!LO:LB:g=original	!
!	!	!	!	!	!	!LO:TX:t=P:♯below:problem	!
.	.	.	.	.	.	2f#X\	.
1G\	-cto	.	.	1B/	-cto	1g\	-pe-
=189-	=189-	=189-	=189-	=189-	=189-	=189-	=189-
1r	.	2e\	re-	2c/	re-	1g\	-cto
.	.	2e\	-ſur-	2c/	-ſur-	.	.
2D/	re-	2f\	-re-	2d\	-re-	1r	.
2D/	-ſur-	2f\	-cti-	2d\	-cti-	.	.
=190-	=190-	=190-	=190-	=190-	=190-	=190-	=190-
2E/	-re-	1g\	-o-	2B/	-o-	2g\	re-
2E/	-cti-	.	.	2B/	-nem	2g\	-ſur-
2F/	-o-	2c/	-nem	2.A/	mor-	2a\	-re-
2F/	-nem	2c/	mor-	.	.	2a\	-cti-
.	.	.	.	4B/	.	.	.
=191-	=191-	=191-	=191-	=191-	=191-	=191-	=191-
2C/	mor-	1e\	-tu-	1.c\	-tu-	2g\	-o-
2C/	-tu-	.	.	.	.	2g\	-nem
1G\	-o-	1d\	-o-	.	.	2.g\	mor-
*	*	*	*	*custos:c	*	*	*
.	.	.	.	2B/	-o-	.	.
.	.	.	.	.	.	4fny\	.
!	!	!	!	!LO:LB:g=original	!	!	!
=192-	=192-	=192-	=192-	=192-	=192-	=192-	=192-
1C/	-rum,	0c\	-rum	1c\,<	-rum	2e/	.
.	.	.	.	.	.	2e/	-tu-
1F\	et	.	.	1A/	Et	1f\	-o-
=193-	=193-	=193-	=193-	=193-	=193-	=193-	=193-
1A\	Vi-	1c\	Et	1c\	Vi-	1e\,<	-rum
*	*	*custos:d	*	*	*	*	*
1.G\	-tam	1e\	Ui-	2B/,<	-tam	1g\	Et
.	.	.	.	2B/	Ven-	.	.
!	!	!LO:LB:g=original	!	!	!	!	!
=194-	=194-	=194-	=194-	=194-	=194-	=194-	=194-
.	.	1d\	-tam	4B/	-tu-	1b\	Vi-
.	.	.	.	4c/	.	.	.
2G\	Ven-	.	.	4d\	.	.	.
.	.	.	.	4e\	.	.	.
1D/	-tu-	1d\	Ven-	1.f\	.	2a\	-tam
.	.	.	.	.	.	2a\	Ven-
=195-	=195-	=195-	=195-	=195-	=195-	=195-	=195-
2F/	-ri	2c/	-tu-	.	.	2a\	-tu-
2G\	.	2B/	-ri	2d\	-ri	2g\	-ri
2D/	ſae-	2A/	ſae-	2d\	ſae-	2g\	ſae-
!	!	!	!	!	!	!LO:TX:t=P:♯below:problem	!
2D/	-cu-	2A/	-cu-	2d\	-cu-	2f#X\	-cu-
=196-	=196-	=196-	=196-	=196-	=196-	=196-	=196-
1G\	-li	0G/	-li	2.d\	-li	0g\	-li
.	.	.	.	4c/	.	.	.
*lig	*	*	*	*	*	*	*
1G\	A-	.	.	1B/	.	.	.
=197-	=197-	=197-	=197-	=197-	=197-	=197-	=197-
*	*	*	*	*lig	*	*	*
!	!	!	!	!	!	!LO:TX:t=iedna	!
1A\	.	1c\	A-	1e\	A-	0r	.
*Xlig	*	*	*	*	*	*	*
1B\	.	1d\	.	1g\	.	.	.
*	*	*	*	*Xlig	*	*	*
=198-	=198-	=198-	=198-	=198-	=198-	=198-	=198-
*	*	*	*	*	*	*lig	*
2.c\	.	1e\	.	2.c/	.	1g\	A-
*custos:A	*	*	*	*	*	*	*
4B\	.	.	.	4d\	.	.	.
*lig	*	*	*	*	*	*	*
!LO:LB:g=original	!	!	!	!	!	!	!
1A\	.	1c\	.	1e\	.	1a\	.
*	*	*	*	*	*	*Xlig	*
!	!	!	!	!	!	!LO:LB:g=original	!
=199-	=199-	=199-	=199-	=199-	=199-	=199-	=199-
1D/	.	1f\	.	1d\	.	1b\	.
*Xlig	*	*	*	*	*	*	*
1C/	.	1e\	.	2G/	-men	2.cc\	.
.	.	.	.	1c\	A-	.	.
.	.	.	.	.	.	8b\L	.
.	.	.	.	.	.	8a\J	.
=200-	=200-	=200-	=200-	=200-	=200-	=200-	=200-
1G\	.	1d\	.	.	.	2g\	.
.	.	.	.	2B/	.	4g\	.
.	.	.	.	.	.	4fny\	.
1C/	-men	1e\	.	1c\	-men	4e/	.
.	.	.	.	.	.	4d/	.
.	.	.	.	.	.	2c/	.
=201-	=201-	=201-	=201-	=201-	=201-	=201-	=201-
2.G\	A-	1d\	.	1.B/	A-	2d/	-men
.	.	.	.	.	.	2.g\	A-
4F/	.	.	.	.	.	.	.
4E/	.	1e\	.	.	.	.	.
4D/	.	.	.	.	.	4f\	.
*	*	*	*	*custos:A	*	*	*
2C/	.	.	.	2c/	.	2e/	.
!	!	!	!	!LO:LB:g=original	!	!	!
=202-	=202-	=202-	=202-	=202-	=202-	=202-	=202-
*	*	*	*	*lig	*	*	*
4D/	.	1f\	.	1A/	.	2d/	.
4E/	.	.	.	.	.	.	.
2F/	.	.	.	.	.	4c/	.
.	.	.	.	.	.	4d/	.
4E/	.	1g\	.	1B/	.	2e/	.
4F/	.	.	.	.	.	.	.
2G\	.	.	.	.	.	4d/	.
.	.	.	.	.	.	4e/	.
*	*	*	*	*Xlig	*	*	*
=203-	=203-	=203-	=203-	=203-	=203-	=203-	=203-
4F/	.	1c\	.	1A/	.	2f\	.
4G\	.	.	.	.	.	.	.
2A\	.	.	.	.	.	4e/	.
.	.	.	.	.	.	4f\	.
2G\	.	1e\	.	2B/	.	2g\	.
2A\	.	.	.	2c/	.	2e/	.
=204-	=204-	=204-	=204-	=204-	=204-	=204-	=204-
2F\	.	1d\	.	2A/	.	2f\	.
2G\	.	.	.	2B/	.	2d/	.
2C/	-men	[1c\l	-men.	1c\	-men	2e/	-men
1F\	A-	.	.	.	.	1a\	.
=205-	=205-	=205-	=205-	=205-	=205-	=205-	=205-
.	.	0c\_	.	1c\	A-	.	.
2E/	.	.	.	.	.	2g\	A-
2.F/	.	.	.	2c/	-men.	4f\	.
.	.	.	.	.	.	4g\	.
.	.	.	.	2.c/	A-	4a\	.
*	*	*	*	*	*	*custos:cc	*
4G\	.	.	.	.	.	4b\	.
!	!	!	!	!	!	!LO:LB:g=original	!
=206-	=206-	=206-	=206-	=206-	=206-	=206-	=206-
4A\	.	0c\_	.	.	.	2.cc\	.
4B\	.	.	.	4d\	.	.	.
*custos:F	*	*	*	*	*	*	*
2c\	.	.	.	2e\	.	.	.
.	.	.	.	.	.	4g\	.
!LO:LB:g=original	!	!	!	!	!	!	!
1F\	.	.	.	1f\	.	1a\	.
=207-	=207-	=207-	=207-	=207-	=207-	=207-	=207-
0C/l	-men.	0c\]	.	0e\l	-men.	0g\l	-men
==	==	==	==	==	==	==	==
*-	*-	*-	*-	*-	*-	*-	*-
!!!system-decoration: [(*)]
!!!ENC: Arek Malec
!!!END: 2022-01-17
!!!RDF**kern: < = below
!!!RDF**kern: l = terminal long
!!!EED: Andrzej Borzym
!!!EEV: 2022-01-28
